projects/packages/jetpack-mu-wpcom/src/features/wpcom-plugins/images/wpcom-logo.svg

<svg fill="none" height="21" viewBox="0 0 128 21" width="128" xmlns="http://www.w3.org/2000/svg"><g clip-rule="evenodd" fill="#fff" fill-rule="evenodd"><path d="m15.1508 18.5105 2.8652-8.2701c.5355-1.33605.7137-2.40423.7137-3.35415 0-.34488-.0228-.66486-.0633-.96313.7324 1.3338 1.1492 2.86449 1.1492 4.49288 0 3.4548-1.8757 6.4714-4.6648 8.0945zm-3.4208-12.48448c.5648-.0296 1.0737-.08892 1.0737-.08892.5054-.05958.446-.8013-.0597-.7717 0 0-1.5196.11903-2.5006.11903-.92196 0-2.47092-.11903-2.47092-.11903-.50584-.0296-.56514.74185-.0593.7717 0 0 .47848.05932.98381.08892l1.46151 3.99768-2.0535 6.1463-3.41592-10.14398c.56527-.0296 1.07353-.08892 1.07353-.08892.50546-.05958.44565-.8013-.05994-.7717 0 0-1.51931.11903-2.50032.11903-.17587 0-.38342-.00445-.60408-.01144 1.67774-2.54209 4.56109-4.22089 7.83873-4.22089 2.4424 0 4.6663.93213 6.3353 2.45876-.0403-.00254-.08-.00763-.1214-.00763-.9218 0-1.5756.8013-1.5756 1.66217 0 .7717.446 1.4245.9216 2.19645.3567.62371.7733 1.42487.7733 2.58248 0 .80197-.2381 1.81057-.7138 3.02777l-.9359 3.1209zm-1.2966 13.75648c-.92082 0-1.8097-.1351-2.65022-.3815l2.81512-8.1651 2.8835 7.8864c.019.046.0421.0885.0672.129-.9752.3423-2.023.5312-3.1156.5312zm-9.3813-9.3679c0-1.35784.29179-2.64693.81252-3.81139l4.47507 12.23959c-3.12998-1.5178-5.28759-4.7212-5.28759-8.4282zm9.3825-10.4146c-5.7535 0-10.4346 4.67248-10.4346 10.4158 0 5.7439 4.6811 10.4168 10.4346 10.4168 5.7536 0 10.4348-4.6729 10.4348-10.4168 0-5.74332-4.6812-10.4158-10.4348-10.4158z"/><path d="m36.9578 5.95221-2.0807 7.98009-2.0803-7.98009h-2.1003l.4891 1.71018-1.8315 6.53991-1.9918-8.25009h-2.0195l2.839 10.42229h2.2007l1.7006-5.5721 1.5931 5.5721h2.2009l2.98-10.42229zm60.5 10.42189h1.8452v-1.8976h-1.8452zm-55.0958-7.57658c-2.54 0-3.7402 1.63358-3.7402 3.88908 0 2.2557 1.2002 3.8737 3.7402 3.8737 2.5246 0 3.7402-1.618 3.7402-3.8737 0-2.2555-1.2156-3.88908-3.7402-3.88908zm.0022 6.28538c-1.2 0-1.8387-.7777-1.8387-2.3958 0-1.6022.6387-2.3957 1.8387-2.3957s1.8236.778 1.8236 2.3957c0 1.6026-.6236 2.3958-1.8236 2.3958zm15.775-6.11313c-.5455-.10861-.9351-.17111-1.387-.17111-2.5401 0-3.9271 1.69574-3.9271 4.16924 0 2.4577 1.387 3.5936 3.0234 3.5936.8105 0 1.792-.3736 2.3842-.8713v.6843h1.7452v-10.42229h-1.8387zm-.0005 5.27493c-.5919.5443-1.1531.84-1.7451.84-1.0132 0-1.6677-.6692-1.6677-2.2402 0-1.6957.8103-2.5822 2.2131-2.5822.4361 0 .8882.1087 1.1997.2332zm7.5205-8.29249h-3.4059v10.42229h1.9637v-3.6245h1.4422c2.2286 0 3.8496-1.1979 3.8496-3.43776 0-2.25603-1.621-3.36003-3.8496-3.36003zm.0138 5.27359h-1.4579v-3.73323h1.4579c1.1845 0 1.7769.65318 1.7769 1.82006 0 1.15087-.5454 1.91317-1.7769 1.91317zm13.8194-2.42828c-2.3686 0-3.5996 1.83578-3.5996 3.84238 0 2.7537 1.4486 3.9204 3.7996 3.9204.9504 0 1.7717-.1262 2.7302-.4202v-1.5263c-.7719.2826-1.4683.4528-2.2161.4528-1.3708 0-2.2878-.3732-2.3348-1.9911h4.7375c.0315-.2954.0626-.5754.0626-1.0887 0-1.5557-.8259-3.18928-3.1794-3.18928zm-1.603 3.06638c.1091-1.0268.67-1.6801 1.5892-1.6801.9821 0 1.2781.7781 1.2781 1.6801zm7.9782-.8105c0-.5602.6082-.7777 1.2623-.7777 1.0556 0 2.0569.3264 2.0569.3264v-1.52461c-.6854-.2021-1.3868-.27997-2.1969-.27997-1.7767 0-3.0233.84004-3.0233 2.20888 0 2.6602 3.6778 1.9761 3.6778 3.2671 0 .6378-.5767.8089-1.4182.8089-.5923 0-1.5427-.2307-2.2283-.4686v1.5091c.5708.2242 1.371.4374 2.166.4374 1.7296 0 3.3817-.5135 3.3817-2.3646 0-2.5668-3.678-1.8979-3.678-3.1423zm25.5194-2.25588c-2.54 0-3.74 1.63358-3.74 3.88908 0 2.2557 1.2 3.8737 3.74 3.8737 2.525 0 3.741-1.618 3.741-3.8737 0-2.2555-1.216-3.88908-3.741-3.88908zm0 6.28538c-1.2 0-1.839-.7777-1.839-2.3958 0-1.6022.639-2.3957 1.839-2.3957s1.823.778 1.823 2.3957c0 1.6026-.623 2.3958-1.823 2.3958zm14.259-6.28538c-.794 0-1.698.43558-2.524.98015l-.218.14011c-.39-.82454-1.169-1.12026-2.026-1.12026-.795 0-1.699.40471-2.525.94915v-.76229h-1.745v7.38902h1.854v-5.3045c.686-.4511 1.418-.731 1.948-.731.608 0 .982.3264.982 1.3689v4.6666h1.839v-5.289c.685-.4511 1.418-.7465 1.948-.7465.607 0 .982.3264.982 1.3689v4.6666h1.838v-5.1021c0-1.43152-.857-2.47378-2.353-2.47378zm-53.2169 1.40268h-.0622v-1.21341h-1.7143v7.38901h1.8387v-4.4023c.5766-1.0888 1.2779-1.4466 2.4467-1.4466h.1869v-1.60222s-.2647-.03125-.4987-.03125c-.9971 0-1.683.38883-2.1971 1.30677zm-23.0645 0h-.0622v-1.21341h-1.7145v7.38901h1.8391v-4.4023c.5765-1.0888 1.2778-1.4466 2.4465-1.4466h.1872v-1.60222s-.2652-.03125-.4986-.03125c-.9977 0-1.6832.38883-2.1975 1.30677zm52.8934 2.4088c0-1.7267.95-2.3181 2.072-2.3181.748 0 1.535.2181 2.065.4202v-1.55562c-.624-.20235-1.176-.35796-2.096-.35796-2.446 0-3.958 1.49338-3.958 3.90458 0 2.2868 1.091 3.8582 3.849 3.8582.873 0 1.55-.1712 2.298-.4202v-1.5246c-.841.3268-1.488.4511-2.064.4511-1.216 0-2.166-.5599-2.166-2.4576zm-9.6967-1.5556c0-.5602.6078-.7777 1.2624-.7777 1.0555 0 2.057.3264 2.057.3264v-1.52461c-.6857-.2021-1.3871-.27997-2.1975-.27997-1.7765 0-3.0233.84004-3.0233 2.20888 0 2.6602 3.6779 1.9761 3.6779 3.2671 0 .6378-.5767.8089-1.4183.8089-.5922 0-1.5424-.2307-2.2282-.4686v1.5091c.5711.2242 1.3713.4374 2.166.4374 1.7301 0 3.3816-.5135 3.3816-2.3646 0-2.5668-3.6776-1.8979-3.6776-3.1423z"/></g></svg>

<svg width="128" height="21" viewBox="0 0 128 21" fill="none" xmlns="http://www.w3.org/2000/svg">
<path fill-rule="evenodd" clip-rule="evenodd" d="M15.1508 18.5105L18.016 10.2404C18.5515 8.90435 18.7297 7.83617 18.7297 6.88625C18.7297 6.54137 18.7069 6.22139 18.6664 5.92312C19.3988 7.25692 19.8156 8.78761 19.8156 10.416C19.8156 13.8708 17.9399 16.8874 15.1508 18.5105ZM11.73 6.02602C12.2948 5.99642 12.8037 5.9371 12.8037 5.9371C13.3091 5.87752 13.2497 5.1358 12.744 5.1654C12.744 5.1654 11.2244 5.28443 10.2434 5.28443C9.32144 5.28443 7.77248 5.1654 7.77248 5.1654C7.26664 5.1358 7.20734 5.90725 7.71318 5.9371C7.71318 5.9371 8.19166 5.99642 8.69699 6.02602L10.1585 10.0237L8.105 16.17L4.68908 6.02602C5.25435 5.99642 5.76261 5.9371 5.76261 5.9371C6.26807 5.87752 6.20826 5.1358 5.70267 5.1654C5.70267 5.1654 4.18336 5.28443 3.20235 5.28443C3.02648 5.28443 2.81893 5.27998 2.59827 5.27299C4.27601 2.7309 7.15936 1.0521 10.437 1.0521C12.8794 1.0521 15.1033 1.98423 16.7723 3.51086C16.732 3.50832 16.6923 3.50323 16.6509 3.50323C15.7291 3.50323 15.0753 4.30453 15.0753 5.1654C15.0753 5.9371 15.5213 6.5899 15.9969 7.36185C16.3536 7.98556 16.7702 8.78672 16.7702 9.94433C16.7702 10.7463 16.5321 11.7549 16.0564 12.9721L15.1205 16.093L11.73 6.02602ZM10.4334 19.7825C9.51258 19.7825 8.6237 19.6474 7.78318 19.401L10.5983 11.2359L13.4818 19.1223C13.5008 19.1683 13.5239 19.2108 13.549 19.2513C12.5738 19.5936 11.526 19.7825 10.4334 19.7825ZM1.0521 10.4146C1.0521 9.05676 1.34389 7.76767 1.86462 6.60321L6.33969 18.8428C3.20971 17.325 1.0521 14.1216 1.0521 10.4146ZM10.4346 0C4.6811 0 0 4.67248 0 10.4158C0 16.1597 4.6811 20.8326 10.4346 20.8326C16.1882 20.8326 20.8694 16.1597 20.8694 10.4158C20.8694 4.67248 16.1882 0 10.4346 0Z" fill="white"/>
<path fill-rule="evenodd" clip-rule="evenodd" d="M36.9578 5.95221L34.8771 13.9323L32.7968 5.95221H30.6965L31.1856 7.66239L29.3541 14.2023L27.3623 5.95221H25.3428L28.1818 16.3745H30.3825L32.0831 10.8024L33.6762 16.3745H35.8771L38.8571 5.95221H36.9578ZM97.4578 16.3741H99.303V14.4765H97.4578V16.3741ZM42.362 8.79752C39.822 8.79752 38.6218 10.4311 38.6218 12.6866C38.6218 14.9423 39.822 16.5603 42.362 16.5603C44.8866 16.5603 46.1022 14.9423 46.1022 12.6866C46.1022 10.4311 44.8866 8.79752 42.362 8.79752ZM42.3642 15.0829C41.1642 15.0829 40.5255 14.3052 40.5255 12.6871C40.5255 11.0849 41.1642 10.2914 42.3642 10.2914C43.5642 10.2914 44.1878 11.0694 44.1878 12.6871C44.1878 14.2897 43.5642 15.0829 42.3642 15.0829ZM58.1392 8.96977C57.5937 8.86116 57.2041 8.79866 56.7522 8.79866C54.2121 8.79866 52.8251 10.4944 52.8251 12.9679C52.8251 15.4256 54.2121 16.5615 55.8485 16.5615C56.659 16.5615 57.6405 16.1879 58.2327 15.6902V16.3745H59.9779V5.95221H58.1392V8.96977ZM58.1387 14.2447C57.5468 14.789 56.9856 15.0847 56.3936 15.0847C55.3804 15.0847 54.7259 14.4155 54.7259 12.8445C54.7259 11.1488 55.5362 10.2623 56.939 10.2623C57.3751 10.2623 57.8272 10.371 58.1387 10.4955V14.2447ZM65.6592 5.95221H62.2533V16.3745H64.217V12.75H65.6592C67.8878 12.75 69.5088 11.5521 69.5088 9.31224C69.5088 7.05621 67.8878 5.95221 65.6592 5.95221ZM65.673 11.2258H64.2151V7.49257H65.673C66.8575 7.49257 67.4499 8.14575 67.4499 9.31263C67.4499 10.4635 66.9045 11.2258 65.673 11.2258ZM79.4924 8.79752C77.1238 8.79752 75.8928 10.6333 75.8928 12.6399C75.8928 15.3936 77.3414 16.5603 79.6924 16.5603C80.6428 16.5603 81.4641 16.4341 82.4226 16.1401V14.6138C81.6507 14.8964 80.9543 15.0666 80.2065 15.0666C78.8357 15.0666 77.9187 14.6934 77.8717 13.0755H82.6092C82.6407 12.7801 82.6718 12.5001 82.6718 11.9868C82.6718 10.4311 81.8459 8.79752 79.4924 8.79752ZM77.8894 11.8639C77.9985 10.8371 78.5594 10.1838 79.4786 10.1838C80.4607 10.1838 80.7567 10.9619 80.7567 11.8639H77.8894ZM85.8676 11.0534C85.8676 10.4932 86.4758 10.2757 87.1299 10.2757C88.1855 10.2757 89.1868 10.6021 89.1868 10.6021V9.07749C88.5014 8.87539 87.8 8.79752 86.9899 8.79752C85.2132 8.79752 83.9666 9.63756 83.9666 11.0064C83.9666 13.6666 87.6444 12.9825 87.6444 14.2735C87.6444 14.9113 87.0677 15.0824 86.2262 15.0824C85.6339 15.0824 84.6835 14.8517 83.9979 14.6138V16.1229C84.5687 16.3471 85.3689 16.5603 86.1639 16.5603C87.8935 16.5603 89.5456 16.0468 89.5456 14.1957C89.5456 11.6289 85.8676 12.2978 85.8676 11.0534ZM111.387 8.79752C108.847 8.79752 107.647 10.4311 107.647 12.6866C107.647 14.9423 108.847 16.5603 111.387 16.5603C113.912 16.5603 115.128 14.9423 115.128 12.6866C115.128 10.4311 113.912 8.79752 111.387 8.79752ZM111.387 15.0829C110.187 15.0829 109.548 14.3052 109.548 12.6871C109.548 11.0849 110.187 10.2914 111.387 10.2914C112.587 10.2914 113.21 11.0694 113.21 12.6871C113.21 14.2897 112.587 15.0829 111.387 15.0829ZM125.646 8.79752C124.852 8.79752 123.948 9.2331 123.122 9.77767L122.904 9.91778C122.514 9.09324 121.735 8.79752 120.878 8.79752C120.083 8.79752 119.179 9.20223 118.353 9.74667V8.98438H116.608V16.3734H118.462V11.0689C119.148 10.6178 119.88 10.3379 120.41 10.3379C121.018 10.3379 121.392 10.6643 121.392 11.7068V16.3734H123.231V11.0844C123.916 10.6333 124.649 10.3379 125.179 10.3379C125.786 10.3379 126.161 10.6643 126.161 11.7068V16.3734H127.999V11.2713C127.999 9.83978 127.142 8.79752 125.646 8.79752ZM72.4291 10.2002H72.3669V8.98679H70.6526V16.3758H72.4913V11.9735C73.0679 10.8847 73.7692 10.5269 74.938 10.5269H75.1249V8.92468C75.1249 8.92468 74.8602 8.89343 74.6262 8.89343C73.6291 8.89343 72.9432 9.28226 72.4291 10.2002ZM49.3646 10.2002H49.3024V8.98679H47.5879V16.3758H49.427V11.9735C50.0035 10.8847 50.7048 10.5269 51.8735 10.5269H52.0607V8.92468C52.0607 8.92468 51.7955 8.89343 51.5621 8.89343C50.5644 8.89343 49.8789 9.28226 49.3646 10.2002ZM102.258 12.609C102.258 10.8823 103.208 10.2909 104.33 10.2909C105.078 10.2909 105.865 10.509 106.395 10.7111V9.15548C105.771 8.95313 105.219 8.79752 104.299 8.79752C101.853 8.79752 100.341 10.2909 100.341 12.7021C100.341 14.9889 101.432 16.5603 104.19 16.5603C105.063 16.5603 105.74 16.3891 106.488 16.1401V14.6155C105.647 14.9423 105 15.0666 104.424 15.0666C103.208 15.0666 102.258 14.5067 102.258 12.609ZM92.5613 11.0534C92.5613 10.4932 93.1691 10.2757 93.8237 10.2757C94.8792 10.2757 95.8807 10.6021 95.8807 10.6021V9.07749C95.195 8.87539 94.4936 8.79752 93.6832 8.79752C91.9067 8.79752 90.6599 9.63756 90.6599 11.0064C90.6599 13.6666 94.3378 12.9825 94.3378 14.2735C94.3378 14.9113 93.7611 15.0824 92.9195 15.0824C92.3273 15.0824 91.3771 14.8517 90.6913 14.6138V16.1229C91.2624 16.3471 92.0626 16.5603 92.8573 16.5603C94.5874 16.5603 96.2389 16.0468 96.2389 14.1957C96.2389 11.6289 92.5613 12.2978 92.5613 11.0534Z" fill="white"/>
</svg>
